icons/default/Marketing.svg

<path
	d="M21.2787 9.72248L23.794 7.20718C23.9951 7.00608 24.0553 6.70365 23.9465 6.44091C23.8376 6.17818 23.5813 6.00685 23.2969 6.00685H18.7449C14.7569 -3.48204 0.325312 -1.28979 0 9.72263C4.68749e-05 14.8571 3.99355 19.076 9.03753 19.4375V22.5756H3.71568C2.78278 22.6128 2.78348 23.9451 3.71568 23.9819H15.7656C16.6985 23.9447 16.6978 22.6124 15.7656 22.5756H10.4438V19.4379C15.2131 19.1005 17.8137 15.6803 18.7449 13.4382H23.2969C23.5813 13.4382 23.8376 13.2668 23.9465 13.0041C24.0553 12.7414 23.9951 12.4389 23.794 12.2378L21.2787 9.72248ZM19.0694 7.41315H21.5994L19.9932 9.01941H17.4631L19.0694 7.41315ZM9.74065 18.0569C5.14508 18.0569 1.40629 14.3181 1.40629 9.72253C1.72275 0.0601131 14.476 -1.54315 17.5865 6.90732L16.2947 8.19905C15.6026 5.22052 12.9267 2.99439 9.74065 2.99439C0.814779 3.364 0.817591 16.0824 9.7407 16.4506C12.9267 16.4506 15.6026 14.2245 16.2947 11.246L17.5865 12.5377C16.5922 15.296 13.8065 18.0569 9.74065 18.0569ZM9.74065 10.4256H11.9402C11.0966 12.9013 7.49244 12.3686 7.43127 9.72244C7.49267 7.07583 11.097 6.54418 11.9402 9.01936H9.74065C8.80775 9.05653 8.80845 10.3888 9.74065 10.4256ZM9.74065 6.0069C7.69184 6.0069 6.02502 7.67372 6.02502 9.72253C6.15463 14.2324 12.4324 14.7919 13.3886 10.4257H15.016C14.6708 13.029 12.4368 15.0444 9.74061 15.0444C2.68045 14.752 2.68256 4.69187 9.7407 4.40064C12.4368 4.40064 14.6709 6.41602 15.016 9.01936H13.3886C13.059 7.30575 11.549 6.0069 9.74065 6.0069ZM19.0694 12.0319L17.4631 10.4256H19.9932L21.5994 12.0319H19.0694Z" />

<path d="m21.279 9.722 2.515-2.515a.703.703 0 0 0-.497-1.2h-4.552C14.757-3.482.325-1.29 0 9.723c0 5.134 3.994 9.353 9.038 9.714v3.139H3.716c-.933.037-.933 1.37 0 1.406h12.05c.932-.037.932-1.37 0-1.406h-5.322v-3.138c4.77-.337 7.37-3.758 8.3-6h4.553a.703.703 0 0 0 .497-1.2l-2.515-2.516Zm-2.21-2.309h2.53L19.993 9.02h-2.53l1.606-1.606ZM9.741 18.057c-4.596 0-8.335-3.739-8.335-8.334.317-9.663 13.07-11.266 16.18-2.816L16.296 8.2c-.692-2.978-3.368-5.205-6.554-5.205-8.926.37-8.923 13.088 0 13.457 3.186 0 5.862-2.226 6.554-5.205l1.291 1.292c-.994 2.758-3.78 5.519-7.845 5.519Zm0-7.631h2.2c-.844 2.475-4.449 1.943-4.51-.704.062-2.646 3.666-3.178 4.51-.703h-2.2c-.933.038-.933 1.37 0 1.407Zm0-4.42a3.72 3.72 0 0 0-3.716 3.717c.13 4.51 6.407 5.069 7.364.703h1.627a5.33 5.33 0 0 1-5.275 4.618c-7.06-.292-7.058-10.352 0-10.643a5.33 5.33 0 0 1 5.275 4.618h-1.627A3.721 3.721 0 0 0 9.74 6.007Zm9.328 6.026-1.606-1.606h2.53l1.606 1.606h-2.53Z"/>
